Numix-GalliumOS/scalable/status/weather-showers-scattered-symbolic.svg

<svg width="16" xmlns="http://www.w3.org/2000/svg" viewBox="0 0 16 16" height="16" xmlns:xlink="http://www.w3.org/1999/xlink" style="enable-background:new">
<defs>
<clipPath>
<rect width="477.143" x="-830" y="1580.934" height="208.571" style="fill:#ff0"/>
</clipPath>
<clipPath clipPathUnits="userSpaceOnUse">
<rect width="357.384" x="218.9" y="758.675" height="318.397" style="fill:#fff" transform="rotate(.22918)"/>
</clipPath>
<clipPath>
<rect width="477.143" x="-830" y="1580.934" height="208.571" style="fill:#ff0"/>
</clipPath>
<clipPath clipPathUnits="userSpaceOnUse">
<rect width="506.461" x="8.208" y=".064" height="37.48" style="fill:#162d50" transform="rotate(20.37582)"/>
</clipPath>
<clipPath>
<rect width="477.143" x="-830" y="1580.934" height="208.571" style="fill:#ff0"/>
</clipPath>
<clipPath>
<rect width="477.143" x="-830" y="1580.934" height="208.571" style="fill:#ff0"/>
</clipPath>
<clipPath clipPathUnits="userSpaceOnUse">
<rect width="357.865" x="294.934" y="780.645" height="240.871" style="fill:#f00" transform="matrix(.99975 -.02255 .02255 .99975 0 0)"/>
</clipPath>
<clipPath clipPathUnits="userSpaceOnUse">
<rect width="357.384" x="218.9" y="758.675" height="318.397" style="fill:#fff" transform="rotate(.22918)"/>
</clipPath>
<clipPath clipPathUnits="userSpaceOnUse">
<rect width="350.457" x="221.386" y="804.242" height="235.885" transform="rotate(.6171)"/>
</clipPath>
<clipPath>
<rect width="477.143" x="-830" y="1580.934" height="208.571" style="fill:#ff0"/>
</clipPath>
<clipPath clipPathUnits="userSpaceOnUse">
<rect width="506.461" x="8.208" y=".064" height="37.48" style="fill:#162d50" transform="rotate(20.37582)"/>
</clipPath>
<clipPath>
<rect width="477.143" x="-830" y="1580.934" height="208.571" style="fill:#ff0"/>
</clipPath>
<clipPath clipPathUnits="userSpaceOnUse">
<rect width="79.477" x="276.365" y="977.09" height="30.006" style="fill:#e20a17"/>
</clipPath>
<clipPath clipPathUnits="userSpaceOnUse">
<rect width="287.432" x="257.321" y="793.52" height="279.027" style="fill:#fff" transform="rotate(.16206)"/>
</clipPath>
<clipPath clipPathUnits="userSpaceOnUse">
<rect width="301.429" x="0" y=".06" height="195" style="fill:#fff"/>
</clipPath>
<clipPath clipPathUnits="userSpaceOnUse">
<rect width="301.429" x="0" y="857.541" height="195" style="fill:#fff"/>
</clipPath>
<clipPath clipPathUnits="userSpaceOnUse">
<path style="fill:#4a0;clip-path:url(#clipPath11535)" d="m 699.2857,672.93231 a 40.714287,40.714287 0 1 1 -81.42858,0 40.714287,40.714287 0 1 1 81.42858,0 z"/>
</clipPath>
<clipPath clipPathUnits="userSpaceOnUse">
<rect width="301.429" x="0" y="857.541" height="195" style="fill:#fff"/>
</clipPath>
<clipPath id="clipPath11535" clipPathUnits="userSpaceOnUse">
<path style="fill:#4a0" d="m 699.2857,672.93231 a 40.714287,40.714287 0 1 1 -81.42858,0 40.714287,40.714287 0 1 1 81.42858,0 z"/>
</clipPath>
<clipPath clipPathUnits="userSpaceOnUse">
<rect width="301.429" x="0" y="857.541" height="195" style="fill:#fff"/>
</clipPath>
<clipPath clipPathUnits="userSpaceOnUse">
<path style="fill:#4a0" d="m 699.2857,672.93231 a 40.714287,40.714287 0 1 1 -81.42858,0 40.714287,40.714287 0 1 1 81.42858,0 z" transform="matrix(4.3233 0 0 4.3233 -2450.68 -2667.55)"/>
</clipPath>
<clipPath clipPathUnits="userSpaceOnUse">
<rect width="63.987" x="448.118" y="815.74" height="41.394" style="fill:#fff" transform="rotate(27.44968)"/>
</clipPath>
<clipPath clipPathUnits="userSpaceOnUse">
<path style="fill:#4a0;clip-path:url(#clipPath11535)" d="m 699.2857,672.93231 a 40.714287,40.714287 0 1 1 -81.42858,0 40.714287,40.714287 0 1 1 81.42858,0 z" transform="matrix(4.3233 0 0 4.3233 -2450.68 -2667.55)"/>
</clipPath>
<clipPath clipPathUnits="userSpaceOnUse">
<path style="fill:#4a0;clip-path:url(#clipPath11535)" d="m 699.2857,672.93231 a 40.714287,40.714287 0 1 1 -81.42858,0 40.714287,40.714287 0 1 1 81.42858,0 z" transform="matrix(4.3233 0 0 4.3233 -2450.68 -2667.55)"/>
</clipPath>
</defs>
<g style="fill:#bebebe">
<path d="m 2.1176812,8.1108457 c 0.5742258,0.1564617 1.3265412,0 1.3265412,0 0.3408665,0.6106826 1.4645141,1.016998 2.2483451,1.016998 1.2780795,0 2.5886867,-0.4302666 2.8912126,-1.016998 0,0 5.2926979,0.4302697 6.3912509,0 1.599246,-0.6263788 1.101895,-2.5849086 0.03782,-3.2465836 -1.064079,-0.661675 -2.458023,-0.1955772 -2.458023,-0.1955772 0,0 -0.0041,-1.3487202 -1.508961,-1.9924428 C 9.5410491,2.032521 8.2693664,3.4561067 8.2693664,3.4561067 c 0,0 -0.9586818,-2.77784469 -3.6558467,-2.4251565 C 1.9213177,1.382989 2.004234,3.7299147 2.004234,3.7299147 0.90155133,3.9203442 0,4.8982988 0,5.9203817 0,6.9424522 1.1523286,7.8478023 2.1176812,8.1108457 z"/>
<path d="M 1.5742399,11.992677 C 0.35017295,11.649767 1.603407,9.3327113 2.3548298,8.5753338 2.7168267,9.5762333 2.7983068,12.335587 1.5742399,11.992677 z"/>
<path d="m 4.4354386,14.419042 c -1.3926112,-0.390128 0.033183,-3.026222 0.8880709,-3.887884 0.4118411,1.138714 0.5045403,4.27801 -0.8880709,3.887884 z"/>
<path d="M 8.1942542,12.466729 C 6.9461095,12.117073 8.2239947,9.7544412 8.9901986,8.9821652 9.3593161,10.002753 9.442399,12.816383 8.1942542,12.466729 z"/>
<path d="m 10.478427,14.964928 c -1.4648439,-0.410363 0.0349,-3.183188 0.934135,-4.089544 0.433203,1.197778 0.53071,4.499906 -0.934135,4.089544 z"/>
<path d="m 13.291849,12.269422 c -1.320377,-0.369891 0.03146,-2.8692547 0.842009,-3.6862235 0.390479,1.0796518 0.47837,4.0561145 -0.842009,3.6862235 z"/>
</g>
</svg>

<svg xmlns="http://www.w3.org/2000/svg" viewBox="0 0 16 16" style="enable-background:new">
 <g style="fill:#bebebe">
  <path d="m 2.118 8.111 c 0.574 0.156 1.327 0 1.327 0 0.341 0.611 1.465 1.017 2.248 1.017 1.278 0 2.589 -0.43 2.891 -1.017 0 0 5.293 0.43 6.391 0 1.599 -0.626 1.102 -2.585 0.038 -3.247 -1.064 -0.662 -2.458 -0.196 -2.458 -0.196 0 0 -0.004 -1.349 -1.509 -1.992 c -1.505 -0.644 -2.777 0.78 -2.777 0.78 c 0 0 -0.959 -2.778 -3.656 -2.425 c -2.692 0.352 -2.609 2.699 -2.609 2.699 -1.103 0.19 -2 1.168 -2 2.19 0 1.022 1.152 1.927 2.118 2.19 z"/>
  <path d="m 1.574 11.993 c -1.224 -0.343 0.029 -2.66 0.781 -3.417 0.362 1 0.443 3.76 -0.781 3.417 z"/>
  <path d="m 4.435 14.419 c -1.393 -0.39 0.033 -3.03 0.888 -3.888 0.412 1.139 0.505 4.278 -0.888 3.888 z"/>
  <path d="m 8.194 12.467 c -1.248 -0.35 0.03 -2.712 0.796 -3.485 0.369 1.021 0.452 3.834 -0.796 3.485 z"/>
  <path d="m 10.478 14.965 c -1.465 -0.41 0.035 -3.183 0.934 -4.09 0.433 1.198 0.531 4.5 -0.934 4.09 z"/>
  <path d="m 13.292 12.269 c -1.32 -0.37 0.031 -2.869 0.842 -3.686 0.39 1.08 0.478 4.056 -0.842 3.686 z"/>
 </g>
</svg>
